src/images/app-icons/dark-theme/WatsonPersonalityInsights.svg

<svg xmlns="http://www.w3.org/2000/svg" xmlns:xlink="http://www.w3.org/1999/xlink" viewBox="0 0 32 32"><defs><linearGradient id="WatsonPersonalityInsights_svg__a" x1="7" y1="17.5" x2="13" y2="17.5" gradientUnits="userSpaceOnUse"><stop offset="0" stop-opacity="0"/><stop offset=".8"/></linearGradient><linearGradient id="WatsonPersonalityInsights_svg__b" x1="-4263" y1="-3384.5" x2="-4257" y2="-3384.5" gradientTransform="translate(4282 3402)" xlink:href="#WatsonPersonalityInsights_svg__a"/><linearGradient id="WatsonPersonalityInsights_svg__c" x1="-411.5" y1="-3817.5" x2="-402.5" y2="-3817.5" gradientTransform="translate(423 3833)" gradientUnits="userSpaceOnUse"><stop offset="0" stop-opacity="0"/><stop offset=".53"/></linearGradient><linearGradient id="WatsonPersonalityInsights_svg__e" y1="32" x2="32" gradientUnits="userSpaceOnUse"><stop offset=".1" stop-color="#be95ff"/><stop offset=".9" stop-color="#4589ff"/></linearGradient><mask id="WatsonPersonalityInsights_svg__d" x="0" y="0" width="32" height="32" maskUnits="userSpaceOnUse"><path d="M30 6a4 4 0 10-5 3.858V15a2 2 0 01-2 2h-6v-7h3V2h-8v8h3v7H9a2 2 0 01-2-2V9.858a4 4 0 10-2 0V15a4 4 0 004 4h14a4 4 0 004-4V9.858A4 4 0 0030 6zM14 4h4v4h-4zM4 6a2 2 0 112 2 2 2 0 01-2-2zm22 2a2 2 0 112-2 2 2 0 01-2 2z" fill="#f4f4f4"/><path fill="url(#WatsonPersonalityInsights_svg__a)" d="M7 15h6v5H7z"/><path transform="rotate(180 22 17.5)" fill="url(#WatsonPersonalityInsights_svg__b)" d="M19 15h6v5h-6z"/><path transform="rotate(90 16 15.5)" fill="url(#WatsonPersonalityInsights_svg__c)" d="M11.5 11.5h9v8h-9z"/></mask></defs><g data-name="Layer 2"><g data-name="Dark theme icons"><g mask="url(#WatsonPersonalityInsights_svg__d)"><path fill="url(#WatsonPersonalityInsights_svg__e)" d="M0 0h32v32H0z"/></g><path d="M13 25h6a3 3 0 013 3v2h-2v-2a1 1 0 00-1-1h-6a1 1 0 00-1 1v2h-2v-2a3 3 0 013-3zM20 20a4 4 0 11-4-4 4 4 0 014 4zm-6 0a2 2 0 102-2 2 2 0 00-2 2z" fill="#f4f4f4"/></g></g></svg>

<svg xmlns="http://www.w3.org/2000/svg" xmlns:xlink="http://www.w3.org/1999/xlink" viewBox="0 0 32 32"><defs><style>.cls-1{fill:#f4f4f4;}.cls-2{fill:url(#linear-gradient);}.cls-3{fill:url(#linear-gradient-2);}.cls-4{fill:url(#linear-gradient-3);}.cls-5{mask:url(#mask);}.cls-6{fill:url(#linear-gradient-4);}</style><linearGradient id="linear-gradient" x1="7" y1="17.5" x2="13" y2="17.5" gradientUnits="userSpaceOnUse"><stop offset="0" stop-opacity="0"/><stop offset="0.8"/></linearGradient><linearGradient id="linear-gradient-2" x1="-4263" y1="-3384.5" x2="-4257" y2="-3384.5" gradientTransform="translate(4282 3402)" xlink:href="#linear-gradient"/><linearGradient id="linear-gradient-3" x1="-411.5" y1="-3817.5" x2="-402.5" y2="-3817.5" gradientTransform="translate(423 3833)" gradientUnits="userSpaceOnUse"><stop offset="0" stop-opacity="0"/><stop offset="0.53"/></linearGradient><mask id="mask" x="0" y="0" width="32" height="32" maskUnits="userSpaceOnUse"><path class="cls-1" d="M30,6a4,4,0,1,0-5,3.858V15a2,2,0,0,1-2,2H17V10h3V2H12v8h3v7H9a2,2,0,0,1-2-2V9.858a4,4,0,1,0-2,0V15a4,4,0,0,0,4,4H23a4,4,0,0,0,4-4V9.858A4,4,0,0,0,30,6ZM14,4h4V8H14ZM4,6A2,2,0,1,1,6,8,2,2,0,0,1,4,6ZM26,8a2,2,0,1,1,2-2A2,2,0,0,1,26,8Z"/><rect class="cls-2" x="7" y="15" width="6" height="5"/><rect class="cls-3" x="19" y="15" width="6" height="5" transform="translate(44 35) rotate(180)"/><rect class="cls-4" x="11.5" y="11.5" width="9" height="8" transform="translate(31.5 -0.5) rotate(90)"/></mask><linearGradient id="linear-gradient-4" y1="32" x2="32" gradientUnits="userSpaceOnUse"><stop offset="0.1" stop-color="#be95ff"/><stop offset="0.9" stop-color="#4589ff"/></linearGradient></defs><g id="Layer_2" data-name="Layer 2"><g id="Dark_theme_icons" data-name="Dark theme icons"><g class="cls-5"><rect class="cls-6" width="32" height="32"/></g><path class="cls-1" d="M13,25h6a3,3,0,0,1,3,3v2H20V28a1,1,0,0,0-1-1H13a1,1,0,0,0-1,1v2H10V28A3,3,0,0,1,13,25Z"/><path class="cls-1" d="M20,20a4,4,0,1,1-4-4A4,4,0,0,1,20,20Zm-6,0a2,2,0,1,0,2-2A2,2,0,0,0,14,20Z"/></g></g></svg>
